!!!COM: Bach, Johann Sebastian
!!!OPR: Joh. Seb. Bachs vierstimmige Choralgesänge
!!!XEN: Four-part Chorales
!!!OTL: 134. Nun freut euch, Gottes Kinder all
!!!SCT: BWV 387
!!!SCA: Thematisch-systematisches Verzeichnis der musikalischen Werke Johann Sebastian Bach: Bach-Werke-Verzeichnis (Schmieder)
!!!YOR: Bach Gesellschaft Edition xxxix
!!!ENC: Steven Rasmussen
!!!CDT: 1685/3//-1750/7/28/
!!!OCY: Deutschland
!!!YEC: Copyright (c) 1994, 2000 Center for Computer Assisted Research in the Humanities
!!!YEM: Rights to all derivative editions reserved
!!!YEN: United States of America
**kern	**kern	**kern	**kern	**silbe
*I:[BASSO]	*I:[TENORE]	*I:[ALTO]	*I:[SOPRANO]	*I:[SOPRANO]
*clefF4	*clefGv2	*clefG2	*clefG2	*
*k[]	*k[]	*k[]	*k[]	*
*a:	*a:	*a:	*a:	*
*M4/4	*M4/4	*M4/4	*M4/4	*
8DL	4F	4A	4d	Nun
8EJ	.	.	.	.
=1	=1	=1	=1	=1
4F	4F	8AL	4d	freut
.	.	8BJ	.	.
8FL	4G	4c	4c	euch,
8EJ	.	.	.	.
4D	8AL	4d	4f	Got-
.	8FJ	.	.	.
8CL	4c	4e	4g	-tes
8BBJ	.	.	.	.
=2	=2	=2	=2	=2
4AA	8cL	4e	4.a	Kin-
.	16BL	.	.	.
.	16AJJ	.	.	.
4E	8BL	4e	.	.
.	8dJ	.	8g#	-der
4AA;	4c;	4e;	4a;	all,
8GL	4d	4g	4b	der
8FJ	.	.	.	.
=3	=3	=3	=3	=3
8EL	4e	4g	4cc	Herr
8CJ	.	.	.	.
8DL	8fL	4g	4b	fÃ¤hrt
8FJ	8dJ	.	.	.
8EL	4c	4.g	4cc	auf
8CJ	.	.	.	.
8FL	8cL	.	4a	mit
8DJ	16dL	16fLL	.	.
.	16cJJ	16eJJ	.	.
=4	=4	=4	=4	=4
8GL	8BL	4d	(8b	gro-
8FJ	8AJ	.	4dd)	.
8EL	8GL	4e	.	.
8AJ	8AJ	.	8cc#	-ssem
4D;	4A;	4f#;	4dd;	Schall,
4BB	4d	8gL	4dd	lob-
.	.	8fnJ	.	.
=5	=5	=5	=5	=5
8CL	4.G	4e	4cc	-sin-
8EJ	.	.	.	.
4F	.	4c	4a	-get
.	8F	.	.	.
8AAL	4F	4c	4f	ihm,
8FFJ	.	.	.	.
8BB-L	4F	4B-	4d	lob-
8AAJ	.	.	.	.
=6	=6	=6	=6	=6
4GG	4G	8B-L	4e	-sin-
.	.	8AJ	.	.
4GG#	8FL	4Bn	4d	-get
.	8EJ	.	.	.
4AA;	4E;	4A;	4c#;	ihm,
4AA	4A	4c#	4e	lob-
=7	=7	=7	=7	=7
4BB	4.G	4d	8gL	-sin-
.	.	.	8fJ	.
4C#	.	4A	4e	-get
.	8G	.	.	.
8DL	4F	4A	4f	ihm
8CnJ	.	.	.	.
8BB-L	4F	4B-	4d	mit
8AAJ	.	.	.	.
=8	=8	=8	=8	=8
4GG	8GL	8B-	4.e	hel-
.	8B-J	4d	.	.
4AA	8.AL	.	.	.
.	.	8c#	8e	-ler
.	16GJk	.	.	.
4DD;	4F#;	4A;	4d;	Stimm'!
==|!	==|!	==|!	==|!	==|!
*-	*-	*-	*-	*-
!!!RWG: Key is interpreted using the Humdrum key tool.
!!!URL-pdf: https://s9.imslp.org/files/imglnks/usimg/6/6b/IMSLP24489-PMLP09471-CCARH_Bach_Chorales.pdf#page=95 Musedata edition
!!!URL-pdf: https://s9.imslp.org/files/imglnks/usimg/7/7a/IMSLP04155-Bach_-_BGA_253-438.pdf#page=74 	Bach-Gesellschaft Ausgabe, Band 39 (pp.175-276) Leipzig: Breitkopf und Härtel, 1892. Plate B.W. XXXIX.
!!!END: 1994/07/19
!!!EMD: Converted from MuseData to Humdrum Dec 19, 2000, by Andreas Kornstaedt using muse2kern.
!!!EED: Craig Stuart Sapp
!!!EEV: 2024/03/31
!!!filter-keyboard: satb2gs
!!!title: @{OTL} (@{SCT})
